X: 37
M: 6/8
L: 1/8
K: D
V: 1
|: fga |\
afd dcd | e3 efg | gec cBc | d3 dcd |\
e2e fef | g2g aga | bag f2e | d3 :|
V: 2 clef=bass middle=d
d3 |\
d2f a2A | d2f d2f | g2b g2^g |
a3 c3 | d2d c2A | d2f d2f | g2e a2A |
d3 :||: d3 | d3 B3 | A3 e3 | c3
g3 a2A | d3 :|


